img/icons/mime/large/gif.svg

<svg height="140.9" width="125.3" xmlns="http://www.w3.org/2000/svg" xmlns:xlink="http://www.w3.org/1999/xlink"><linearGradient id="a" gradientTransform="matrix(.939922 0 0 .896911 -12.081733 -3.352424)" gradientUnits="userSpaceOnUse" x1="24" x2="73" y1="16.4" y2="73.4"><stop offset="0" stop-color="#fff"/><stop offset="1" stop-color="#fff" stop-opacity="0"/></linearGradient><linearGradient id="b" gradientTransform="matrix(1.222575 0 0 .738788 -10.653167 -7.742593)" gradientUnits="userSpaceOnUse" x1="12.2" x2="107.8" y1="84" y2="84"><stop offset="0" stop-color="#46a046"/><stop offset=".4" stop-color="#df421e"/><stop offset=".7" stop-color="#ada7c8"/><stop offset="1" stop-color="#eed680"/></linearGradient><g stroke="#000"><rect fill="none" height="133.4" rx="22.9" stroke-linejoin="round" stroke-opacity=".5" stroke-width="7.5" width="117.8" x="3.8" y="3.8"/><rect fill="#df421e" height="133.4" rx="22.9" stroke-width="3.8" width="117.8" x="3.6" y="3.7"/><rect fill="url(#b)" height="67.2" rx="1.3" stroke-width="3.3" width="113.7" x="5.9" y="20.8"/></g><path d="m100.3 132.6h-75.7c-11.6 0-17.3-5.7-17.3-17.4 0 0 27.6-66.5 110.4-76.6v76.6c0 11.7-5.7 17.4-17.4 17.4z" fill="#fff" fill-opacity=".3"/><path d="m24.6 7.3h75.7c11.7 0 17.4 5.7 17.4 17.4 0 0-79.3.9-110.4 91.3v-91.3c0-10.3 7-17.4 17.3-17.4z" fill="url(#a)"/><path d="m97.4 101.3h-10c-1.6 0-2.8.1-3.7.5-.5.1-.9.3-1.2.5-.4.2-.7.4-1 .8-.9.8-1.6 1.8-2 2.9l-.2 1-.1 1.1v.8h18.2v5.1h-18.2v13h-6.7v-15.5c0-1.4 0-2.6.1-3.6s.2-1.9.4-2.7c.6-2.6 1.8-4.7 3.5-6.3 1.2-1 2.5-1.8 4.1-2.3 1.6-.4 3.6-.7 6.1-.7h10.7zm-29.6 25.7h-6.7v-31.1h6.7zm-26.6 0c-4.2 0-7.5-1.3-9.7-4-2.3-2.7-3.4-6.5-3.4-11.5 0-5.1 1.1-8.9 3.4-11.6 2.2-2.7 5.4-4 9.7-4h16.7v5.4h-14.7c-2.6 0-4.5.8-5.8 2.5s-1.9 4.3-1.9 7.7.6 5.9 1.8 7.7c1.2 1.7 3.2 2.5 5.9 2.5h8.1v-7.7h-8.8v-5.1h15.4v18.1z"/><path d="m96.7 100.6h-10c-1.5 0-2.8.2-3.7.5-.5.1-.9.3-1.2.5-.4.2-.7.4-1 .8-.9.8-1.5 1.8-1.9 3l-.3.9-.1 1.1v.8h18.2v5.2h-18.2v13h-6.7v-15.6c0-1.4.1-2.6.1-3.6.1-1 .3-1.9.4-2.7.6-2.5 1.8-4.6 3.6-6.3 1.1-1 2.4-1.8 4-2.2 1.6-.5 3.7-.8 6.1-.8h10.7zm-29.6 25.8h-6.7v-31.2h6.7zm-26.6 0c-4.2 0-7.5-1.4-9.7-4-2.3-2.7-3.4-6.6-3.4-11.6 0-5.1 1.1-8.9 3.4-11.6 2.2-2.6 5.5-4 9.7-4h16.8v5.4h-14.8c-2.6 0-4.5.8-5.8 2.6-1.2 1.7-1.9 4.2-1.9 7.6s.6 6 1.8 7.7 3.2 2.5 5.9 2.5h8.1v-7.6h-8.7v-5.2h15.4v18.2z" fill="#fff"/></svg>

<svg xmlns:svg="http://www.w3.org/2000/svg" xmlns="http://www.w3.org/2000/svg" xmlns:xlink="http://www.w3.org/1999/xlink" id="svg1" width="125.3" height="140.9" version="1">
<style>
.s0{
  stop-color:#46a046;
  stop-opacity:1;
}
.s1{
  stop-color:#df421e;
  stop-opacity:1;
}
.s2{
  stop-color:#ada7c8;
  stop-opacity:1;
}
.s3{
  stop-color:#eed680;
  stop-opacity:1;
}
.s4{
  stop-color:#00ff00;
  stop-opacity:1;
}
.s5{
  stop-color:#ff0000;
  stop-opacity:1;
}
.s6{
  stop-color:#7f8cff;
  stop-opacity:1;
}
.s7{
  stop-color:#ffff00;
  stop-opacity:1;
}

</style>  <metadata id="metadata15"/>
  <defs id="defs3">
    <linearGradient id="linearGradient3587">
      <stop id="stop3589" offset="0" style="stop-color:#efe0cd;stop-opacity:0.6"/>
      <stop id="stop3591" offset="1" style="stop-color:#cececd;stop-opacity:0.2"/>
    </linearGradient>
    <linearGradient id="linearGradient2832">
      <stop offset="0" id="stop2834" style="stop-color:#ffffff;stop-opacity:1"/>
      <stop offset="1" id="stop2836" style="stop-color:#ffffff;stop-opacity:0"/>
    </linearGradient>
    <linearGradient id="linearGradient839">
      <stop offset="0" id="stop840" class="s0"/>
      <stop offset="0.4" id="stop841" class="s1"/>
      <stop offset="0.7" id="stop842" class="s2"/>
      <stop offset="1" id="stop843" class="s3"/>
    </linearGradient>
    <linearGradient gradientUnits="userSpaceOnUse" gradientTransform="scale(1.353569,0.738788)" xlink:href="#linearGradient839" id="linearGradient836" x1="12.2" y1="84" x2="107.8" y2="84"/>
    <linearGradient xlink:href="#linearGradient2832" id="linearGradient2830" gradientTransform="matrix(0.939922,0,0,0.896911,-12.081733,-3.3524237)" x1="24" y1="16.4" x2="73" y2="73.4" gradientUnits="userSpaceOnUse"/>
    <linearGradient y2="93.7" x2="107.3" y1="124.3" x1="111.3" gradientTransform="matrix(0.777129,0,0,0.894628,-162.4688,12.76856)" gradientUnits="userSpaceOnUse" id="linearGradient1407" xlink:href="#linearGradient1700"/>
    <linearGradient y2="93.7" x2="107.3" y1="124.3" x1="111.3" gradientTransform="matrix(0.777129,0,0,0.894628,-2.922179,10.43077)" gradientUnits="userSpaceOnUse" id="linearGradient1390" xlink:href="#linearGradient1700"/>
    <linearGradient id="linearGradient1350">
      <stop offset="0" id="stop1352" class="s0"/>
      <stop offset="0.4" id="stop1354" class="s1"/>
      <stop offset="0.7" id="stop1356" class="s2"/>
      <stop offset="1" id="stop1358" class="s3"/>
    </linearGradient>
    <linearGradient xlink:href="#linearGradient839" id="linearGradient1360" x1="0" y1="0.5" x2="1" y2="0.5"/>
    <linearGradient xlink:href="#linearGradient1700" id="linearGradient1362" gradientTransform="matrix(0.870364,0,0,1.001961,4.612015,4.886798)" x1="123.5" y1="121.7" x2="128.7" y2="88" gradientUnits="userSpaceOnUse"/>
    <linearGradient xlink:href="#linearGradient839" id="linearGradient1363" x1="0" y1="0.5" x2="1" y2="0.5"/>
    <linearGradient id="linearGradient1353">
      <stop offset="0" id="stop1355" class="s0"/>
      <stop offset="0.4" id="stop1357" class="s1"/>
      <stop offset="0.7" id="stop1359" class="s2"/>
      <stop offset="1" id="stop1361" class="s3"/>
    </linearGradient>
    <linearGradient id="linearGradient1700">
      <stop offset="0" id="stop1701" style="stop-color:#000000;stop-opacity:0.7"/>
      <stop offset="1" id="stop1702" style="stop-color:#000000;stop-opacity:0"/>
    </linearGradient>
    <linearGradient y2="0.5" x2="1" y1="0.5" x1="0" id="linearGradient1427" xlink:href="#linearGradient839"/>
    <linearGradient id="linearGradient1417">
      <stop id="stop1419" offset="0" class="s0"/>
      <stop id="stop1421" offset="0.4" class="s1"/>
      <stop id="stop1423" offset="0.7" class="s2"/>
      <stop id="stop1425" offset="1" class="s3"/>
    </linearGradient>
    <linearGradient xlink:href="#linearGradient839" id="linearGradient1381" x1="0" y1="0.5" x2="1" y2="0.5"/>
    <linearGradient id="linearGradient1371">
      <stop offset="0" id="stop1373" class="s0"/>
      <stop offset="0.4" id="stop1375" class="s1"/>
      <stop offset="0.7" id="stop1377" class="s2"/>
      <stop offset="1" id="stop1379" class="s3"/>
    </linearGradient>
    <linearGradient y2="0.5" x2="1" y1="0.5" x1="0" id="linearGradient1374" xlink:href="#linearGradient839"/>
    <linearGradient id="linearGradient1364">
      <stop id="stop1366" offset="0" class="s0"/>
      <stop id="stop1368" offset="0.4" class="s1"/>
      <stop id="stop1370" offset="0.7" class="s2"/>
      <stop id="stop1372" offset="1" class="s3"/>
    </linearGradient>
    <linearGradient y2="0.5" x2="1" y1="0.5" x1="0" id="linearGradient1389" xlink:href="#linearGradient839"/>
    <linearGradient id="linearGradient833">
      <stop id="stop834" offset="0" class="s4"/>
      <stop id="stop837" offset="0.3" class="s5"/>
      <stop id="stop838" offset="0.8" class="s6"/>
      <stop id="stop835" offset="1" class="s7"/>
    </linearGradient>
    <linearGradient id="linearGradient1373">
      <stop id="stop1376" offset="0" class="s0"/>
      <stop id="stop1378" offset="0.4" class="s1"/>
      <stop id="stop1380" offset="0.7" class="s2"/>
      <stop id="stop1382" offset="1" class="s3"/>
    </linearGradient>
    <linearGradient y2="84" x2="107.8" y1="84" x1="12.2" gradientTransform="matrix(1.222575,0,0,0.738788,-10.653167,-7.7425927)" gradientUnits="userSpaceOnUse" id="linearGradient1401" xlink:href="#linearGradient839"/>
    <linearGradient y2="0.5" x2="1" y1="0.5" x1="0" id="linearGradient2974" xlink:href="#linearGradient839"/>
    <linearGradient id="linearGradient2964">
      <stop id="stop2966" offset="0" class="s4"/>
      <stop id="stop2968" offset="0.3" class="s5"/>
      <stop id="stop2970" offset="0.8" class="s6"/>
      <stop id="stop2972" offset="1" class="s7"/>
    </linearGradient>
    <linearGradient id="linearGradient2954">
      <stop id="stop2956" offset="0" class="s0"/>
      <stop id="stop2958" offset="0.4" class="s1"/>
      <stop id="stop2960" offset="0.7" class="s2"/>
      <stop id="stop2962" offset="1" class="s3"/>
    </linearGradient>
    <linearGradient y2="84" x2="107.8" y1="84" x1="12.2" gradientTransform="matrix(1.353569,0,0,0.738788,-182.1667,-25.6819)" gradientUnits="userSpaceOnUse" id="linearGradient2987" xlink:href="#linearGradient839"/>
  </defs>
  <rect id="rect834" width="117.8" height="133.4" x="3.8" y="3.8" ry="22.9" rx="22.9" style="fill:none;stroke-linejoin:round;stroke-opacity:0.5;stroke-width:7.5;stroke:#000"/>
  <rect id="rect828" width="117.8" height="133.4" x="3.6" y="3.7" ry="22.9" rx="22.9" style="fill:#df421e;stroke-width:3.8;stroke:#000"/>
  <rect rx="1.3" y="20.8" x="5.9" ry="1.3" height="67.2" width="113.7" id="rect832" style="fill:url(#linearGradient1401);stroke-width:3.3;stroke:#000"/>
  <path d="M100.3 132.6L24.6 132.6C13 132.6 7.3 126.9 7.3 115.2 7.3 115.2 34.9 48.7 117.7 38.6L117.7 115.2C117.7 126.9 112 132.6 100.3 132.6z" id="path2838" style="fill-opacity:0.3;fill:#fff"/>
  <path d="M24.6 7.3L100.3 7.3C112 7.3 117.7 13 117.7 24.7 117.7 24.7 38.4 25.6 7.3 116L7.3 24.7C7.3 14.4 14.3 7.3 24.6 7.3z" id="rect2063" fill="url(#linearGradient2830)"/>
  <path id="path845" d="M97.4 101.3L87.4 101.3C85.8 101.3 84.6 101.4 83.7 101.8 83.2 101.9 82.8 102.1 82.5 102.3 82.1 102.5 81.8 102.7 81.5 103.1 80.6 103.9 79.9 104.9 79.5 106L79.3 107 79.2 108.1 79.2 108.9 97.4 108.9 97.4 114 79.2 114 79.2 127 72.5 127 72.5 111.5C72.5 110.1 72.5 108.9 72.6 107.9 72.7 106.9 72.8 106 73 105.2 73.6 102.6 74.8 100.5 76.5 98.9 77.7 97.9 79 97.1 80.6 96.6 82.2 96.2 84.2 95.9 86.7 95.9L97.4 95.9 97.4 101.3zM67.8 127L61.1 127 61.1 95.9 67.8 95.9 67.8 127zM41.2 127C37 127 33.7 125.7 31.5 123 29.2 120.3 28.1 116.5 28.1 111.5 28.1 106.4 29.2 102.6 31.5 99.9 33.7 97.2 36.9 95.9 41.2 95.9L57.9 95.9 57.9 101.3 43.2 101.3C40.6 101.3 38.7 102.1 37.4 103.8 36.1 105.5 35.5 108.1 35.5 111.5 35.5 114.9 36.1 117.4 37.3 119.2 38.5 120.9 40.5 121.7 43.2 121.7L51.3 121.7 51.3 114 42.5 114 42.5 108.9 57.9 108.9 57.9 127 41.2 127z" style="font-family:Trek;font-size:40;stroke-width:1"/>
  <path id="path2991" d="M96.7 100.6L86.7 100.6C85.2 100.6 83.9 100.8 83 101.1 82.5 101.2 82.1 101.4 81.8 101.6 81.4 101.8 81.1 102 80.8 102.4 79.9 103.2 79.3 104.2 78.9 105.4L78.6 106.3 78.5 107.4 78.5 108.2 96.7 108.2 96.7 113.4 78.5 113.4 78.5 126.4 71.8 126.4 71.8 110.8C71.8 109.4 71.9 108.2 71.9 107.2 72 106.2 72.2 105.3 72.3 104.5 72.9 102 74.1 99.9 75.9 98.2 77 97.2 78.3 96.4 79.9 96 81.5 95.5 83.6 95.2 86 95.2L96.7 95.2 96.7 100.6zM67.1 126.4L60.4 126.4 60.4 95.2 67.1 95.2 67.1 126.4zM40.5 126.4C36.3 126.4 33 125 30.8 122.4 28.5 119.7 27.4 115.8 27.4 110.8 27.4 105.7 28.5 101.9 30.8 99.2 33 96.6 36.3 95.2 40.5 95.2L57.3 95.2 57.3 100.6 42.5 100.6C39.9 100.6 38 101.4 36.7 103.2 35.5 104.9 34.8 107.4 34.8 110.8 34.8 114.2 35.4 116.8 36.6 118.5 37.8 120.2 39.8 121 42.5 121L50.6 121 50.6 113.4 41.9 113.4 41.9 108.2 57.3 108.2 57.3 126.4 40.5 126.4z" style="fill:#fff;font-family:Trek;font-size:40;stroke-width:1"/>
</svg>
